!!!PDT:	1923
!!!LANG: Non-Tone
!!!LING_GROUP: Siouan
!!!REG: Dakotas
!!!COM: Anon.
!!!OTL: Song in Praise of Generosity
!!!ODT: <1918//
!!!MPN: Kekanatka [Crow's Heart]
!!!MLC: Fort Berthold Reservation, North Dakota, United States of America
!! Song was recorded during either the summer of 1912, 1915, or 1918.
!!!AGN: monody
!!!SOCIAL_FUNCTION: Mandan and Hidatsa War Songs
!!!AMT: irregular
!!!RWG: Transcribed pitches, durations, and meters are only approximate.
!! Drum not recorded.
**kern
*ICvox
*Imale
*clefG2
*k[b-e-a-d-g-]
*M3/4
*MM80
=1-
8.f
16f
8f
8f
4f
*M2/4
=2
16b-
8.b-
16b-
8.b-
*M3/4
=3
! quarters changed to eighths:
(8b-
[8a-
2a-])
*M2/4
=4
4a-
(8a-
8f)
=5
4f
(8f
8e-)
=6
[4d-
8.d-]
16e-
*M3/4
=7
4e-
2e-
=8
(16e-
8.d-)
2d-
=9
8d-
[8B-
4B-]
16a-
8.F
*M2/4
=10
2A-
*M3/4
=11
8.B-
16A-
8B-
[8A-
4A-]
=12
8F
[8F
8F]
8F
4F
*M2/4
=13
[2F
=14
2F]
==
*-
!!!CNT: Mandan
!!!TXO: Mandan
!!!OCY: United States
!!!OCL: Frances Densmore
!!!YOR: Frances Densmore, "Mandan and Hidatsa Music",
!!!YOR: Bulletin 80, page 157, No. 89
!!!PPR: Smithsonian Institution, Bureau of American Ethnology
!!!PPR: Government Printing Office
!!!PDT: 1923
!!!PPP: Washington, DC, United States of America
!!!YEC: Electronic Copyright 2000 David Huron
!!!YER: August 2000
!!!YEN: United States of America
!!!ENC: David Huron
!!!RDT: August 18, 2000
!!!EEV: Release 1.0
!!!AIN: tom, vox
